64x64/apps/ksame.svg

<svg xmlns="http://www.w3.org/2000/svg" width="64" height="64" version="1">
 <path style="opacity:0.2" d="M 4.0504612,31.925991 C 3.9034556,35.848141 4.5540804,39.860294 6.1637418,43.734442 12.111969,58.048988 28.424591,64.785245 42.739137,58.837018 53.837561,54.224842 60.341809,43.384428 59.951794,32.073997 59.555779,42.6424 53.179535,52.498776 42.739137,56.836942 28.424591,62.785168 12.111969,56.052912 6.1637418,41.738366 4.8270908,38.522243 4.1640656,35.204116 4.0504612,31.925991 Z"/>
 <path style="fill:#d2d2d2" d="M 57.837713,21.261546 C 51.889486,6.9472002 35.578864,0.21274325 21.264318,6.1603701 6.9495718,12.108597 0.21551492,28.419219 6.1627418,42.733765 12.110969,57.048311 28.423591,63.782568 42.736137,57.834341 57.050683,51.886115 63.78494,35.575492 57.836713,21.260946 Z"/>
 <path style="fill:#e74c3c" d="M 32.180734,3.9968876 C 28.808606,3.979687 25.382475,4.5869101 22.046348,5.8601587 l 7.110271,18.6655123 a 8.0003052,8.0003052 0 0 1 2.844108,-0.52802 8.0003052,8.0003052 0 0 1 2.844109,0.53202 L 41.959107,5.8523584 C 38.856989,4.6713133 35.552863,4.0140883 32.180734,3.9968876 Z M 5.8677305,22.039576 c -1.2732485,3.336127 -1.8806717,6.762258 -1.863271,10.134387 0.017201,3.372128 0.6784258,6.680254 1.8592709,9.782373 L 24.529242,34.846064 a 8.0003052,8.0003052 0 0 1 -0.52802,-2.848108 8.0003052,8.0003052 0 0 1 0.536021,-2.848109 L 5.8677305,22.039576 Z m 52.2699945,0 -18.664712,7.110271 a 8.0003052,8.0003052 0 0 1 0.52802,2.848109 8.0003052,8.0003052 0 0 1 -0.532021,2.840108 l 18.672713,7.118272 c 1.182045,-3.102119 1.83807,-6.410245 1.856071,-9.782373 0.018,-3.372129 -0.586023,-6.79826 -1.860071,-10.134387 z M 29.156619,39.466241 22.046348,58.134953 c 3.336127,1.274049 6.762258,1.882072 10.134386,1.864071 3.372129,-0.018 6.676255,-0.674026 9.778373,-1.856071 L 34.848836,39.470241 a 8.0003052,8.0003052 0 0 1 -2.848109,0.52802 8.0003052,8.0003052 0 0 1 -2.844108,-0.53202 z"/>
 <path style="opacity:0.2;fill:#f4f4f7" d="M 32.181641 3.9960938 C 28.545503 3.9774931 24.839855 4.6730994 21.261719 6.1601562 C 10.164095 10.771732 3.6589664 21.613397 4.0507812 32.923828 C 4.0512703 32.910769 4.052227 32.897822 4.0527344 32.884766 C 4.0817646 21.955141 10.505125 11.630018 21.261719 7.1601562 C 24.839855 5.6730994 28.545503 4.977493 32.181641 4.9960938 C 43.086057 5.0518959 53.375721 11.527863 57.837891 22.263672 C 59.215096 25.577518 59.883987 28.99214 59.958984 32.365234 C 60.005987 28.668779 59.351457 24.90563 57.837891 21.263672 C 53.375721 10.527863 43.086057 4.0518958 32.181641 3.9960938 z"/>
</svg>

<svg xmlns="http://www.w3.org/2000/svg" width="64" height="64" version="1"><path style="opacity:.2" d="M4.05 31.926a27.924 27.924 0 0 0 2.114 11.808 27.92 27.92 0 0 0 36.575 15.103c11.099-4.612 17.603-15.453 17.213-26.763-.396 10.568-6.772 20.425-17.213 24.763-14.314 5.948-30.627-.784-36.575-15.099a28.005 28.005 0 0 1-2.114-9.812z"/><path style="fill:#d2d2d2" d="M57.838 21.262A27.918 27.918 0 0 0 21.264 6.16 27.918 27.918 0 0 0 6.163 42.734a27.917 27.917 0 0 0 36.573 15.1 27.917 27.917 0 0 0 15.1-36.573z"/><path style="fill:#e74c3c" d="M32.18 3.997A27.977 27.977 0 0 0 22.047 5.86l7.11 18.666a8 8 0 0 1 2.845-.528 8 8 0 0 1 2.844.532l7.114-18.678c-3.102-1.18-6.406-1.838-9.778-1.855zM5.869 22.04a27.973 27.973 0 0 0-1.864 10.134c.018 3.372.679 6.68 1.86 9.782l18.665-7.11a8 8 0 0 1-.528-2.848 8 8 0 0 1 .536-2.848l-18.67-7.11zm52.27 0-18.665 7.11a8 8 0 0 1 .528 2.848 8 8 0 0 1-.532 2.84l18.673 7.118c1.182-3.102 1.838-6.41 1.856-9.782a27.94 27.94 0 0 0-1.86-10.134zM29.157 39.466l-7.11 18.669a27.945 27.945 0 0 0 10.134 1.864c3.372-.018 6.676-.674 9.778-1.856L34.85 39.47a8 8 0 0 1-2.848.528 8 8 0 0 1-2.844-.532z"/><path style="opacity:.2;fill:#f4f4f7" d="M32.182 3.996a28.03 28.03 0 0 0-10.92 2.164C10.164 10.772 3.659 21.613 4.05 32.924l.002-.04C4.082 21.956 10.505 11.63 21.262 7.16a28.03 28.03 0 0 1 10.92-2.164 27.923 27.923 0 0 1 25.656 17.268 27.838 27.838 0 0 1 2.121 10.101 27.878 27.878 0 0 0-2.121-11.101A27.923 27.923 0 0 0 32.182 3.996z"/></svg>
